!!!COM: Palestrina, Giovanni Perluigi da
!!!OPR: Missa In duplicibus minoribus (I)
!!!OMD: Gloria
!!!OTL: Domine Deus Rex
**kern	**kern	**kern	**kern	**kern
*Ibass	*Itenor	*Itenor	*Icalto	*Icant
!Bassus	!Tenor 2	!Tenor 1	!Altus	!Cantus
*clefF4	*clefGv2	*clefGv2	*clefG2	*clefG2
*k[]	*k[]	*k[]	*k[]	*k[]
*E:phr	*E:phr	*E:phr	*E:phr	*E:phr
*M4/2	*M4/2	*M4/2	*M4/2	*M4/2
=33	=33	=33	=33	=33
0r	1E	1B	1r	0r
.	2.A	[1c	1e	.
.	4G	.	.	.
=34	=34	=34	=34	=34
0r	4F	2c]	1f	0r
.	4E	.	.	.
.	2F	2A	.	.
.	2G	2B	2d	.
.	2A	[2c	2c	.
=35	=35	=35	=35	=35
0r	2.G	4c]	1d	0r
.	.	8B	.	.
.	.	8A	.	.
.	.	2B	.	.
.	4F	.	.	.
.	4E	1c	1e	.
.	8F	.	.	.
.	8G	.	.	.
.	[2A	.	.	.
=36	=36	=36	=36	=36
1E	2A]	1B	0e	1b
.	2G#	.	.	.
1A	2A	2r	.	1cc
.	2c	2A	.	.
=37	=37	=37	=37	=37
2F	2d	2A	2r	2a
2E	1e	2B	1g	2g
1A	.	1c	.	1a
.	4d	.	2f	.
.	4c	.	.	.
=38	=38	=38	=38	=38
1G	2d	1B	1g	2b
.	2G	.	.	1dd
1r	1A	1r	2f	.
.	.	.	2e	2cc
=39	=39	=39	=39	=39
2r	0r	0r	2d	2.dd
1d	.	.	1f	.
.	.	.	.	4cc
.	.	.	.	2b
2c	.	.	2e	[2a
=40	=40	=40	=40	=40
1d	0r	1r	2f	2a]
.	.	.	4e	4g
.	.	.	4d	4f
2c	.	2r	4e	1g
.	.	.	4c	.
2B	.	[2d	2d	.
=41	=41	=41	=41	=41
1A	2r	2d]	1e	1a
.	2A	2c	.	.
2r	2B	2.d	1r	1r
[2G	4G	.	.	.
.	4A	4c	.	.
=42	=42	=42	=42	=42
2G]	4B	2B	1r	2r
.	4c	.	.	.
2F	1d	2A	.	2a
1E	.	1G	2r	2b
.	2c#	.	[2g	4g
.	.	.	.	4a
=43	=43	=43	=43	=43
1D	1d	1r	2g]	4b
.	.	.	.	4cc
.	.	.	2f	1dd
1r	1A	2r	1e	.
.	.	2A	.	2cc#
=44	=44	=44	=44	=44
1r	0r	2B	1d	2.dd
.	.	4G	.	.
.	.	4A	.	4cc
1G	.	4B	1g	4b
.	.	4c	.	4a
.	.	[2d	.	2b
=45	=45	=45	=45	=45
1A	1r	2d]	2e	1a
.	.	2c	2f	.
2G	1d	2B	4g	1r
.	.	.	4G	.
2F	.	[2A	4A	.
.	.	.	4B	.
=46	=46	=46	=46	=46
1E	1e	2A]	2c	0r
.	.	2G#	2B	.
1F	2d	1A	1r	.
.	2c	.	.	.
=47	=47	=47	=47	=47
2G	4B	0r	1d	1r
.	4c	.	.	.
2G	4d	.	.	.
.	4B	.	.	.
1C	1c	.	1e	1g
=48	=48	=48	=48	=48
0r	1F	1r	2d	1a
.	.	.	2c	.
.	2G	1d	4B	2g
.	.	.	4c	.
.	2D	.	[2d	2f
=49	=49	=49	=49	=49
1r	1A	1e	4d]	2e
.	.	.	4c	.
.	.	.	4c	2cc
.	.	.	8d	.
.	.	.	8e	.
1D	1r	2d	1f	4b
.	.	.	.	4a
.	.	2c	.	[2a
=50	=50	=50	=50	=50
1E	2r	1B	1e	2a]
.	2B	.	.	2g#
2AA	4c	1A	2.e	2a
.	4B	.	.	.
2AA	[2A	.	.	2cc
.	.	.	4e	.
=51	=51	=51	=51	=51
[0E	2A]	[0B	[0e	[0b
.	2G#	.	.	.
.	1G#	.	.	.
=52	=52	=52	=52	=52
1E_	[0G#	1B_	1e_	1b_
1E_	.	1B_	1e_	1b_
=53	=53	=53	=53	=53
0E]	0G#]	0B]	0e]	0b]
*-	*-	*-	*-	*-
!!!CDT: 1525/^1526/-1594/2/2
!!!OCY: Italia
!!!AGN: Mass (Paraphrase)
!!!AST: renaissance, vocal
!!!ASW: Gregorian Mass
!!!PWK: Masses, Book Mantuan I
!!!RNB: Cadence finals: A
!!!YOR: Le Opere Complete, v. 18, p. 42
!!!YOO: Rome, Italy: Fratelli Scalera
!!!END: 1992//
!!!EED: John Miller
!!!YEC: Copyright 2000, John Miller
!!!YEN: United States of America
!!!YEM: Rights to all derivative electronic formats reserved.
!!!YEM: Refer to licensing agreement for further details.
!!!YEM: This file must be accompanied by the licensing agreement.
!!!YEM: A copy of the licensing agreement may be found at http://www.music-cog.ohio-state.edu/HumdrumDatabases/Palestrina/license.txt
!!!EMD: converted to Humdrum by Bret Aarden
